X: 1
T: Sitting on the stone until I was jaded
M: 6/8
R: Jig
K: Dmaj
|: FAA AFA | dcB AFA | BGE EFG | AFA A2E
|  FAA AFA | dcB AFA | Bee edc |1 d3 d3 |2 d3 d2e  :|
|: fdf fdf | ece ece | fdf fdf | gfg a2g 
|  fdf fga | ecA AFA | Bee edc |1 d3 d2e |2 d3 d3 :|  
